X: 1
T:Mazurka
R:Mazurka
M:3/4
O:France
K:G
DGGFGB| DBBABd| cBAGFG| AGFED2|\
DGGFGB| DBBABd| cBAGFA|1 G2G4:|2 G2G2 ||
|: Bc|\
d2dedc| B2G2 AB| c2cdcB| A4 Bc|\
d2dedc| B2G2 AB| cBAGFA| G2G2:|
